src/lib/packages/icons/src/assets/filled/user-clock.svg

<svg width="24" height="24" viewBox="0 0 24 24" fill="none" xmlns="http://www.w3.org/2000/svg">
<path d="M6.00903 6.5C6.00903 4.294 7.80303 2.5 10.009 2.5C12.215 2.5 14.009 4.294 14.009 6.5C14.009 8.706 12.215 10.5 10.009 10.5C7.80303 10.5 6.00903 8.706 6.00903 6.5ZM12.5 18C12.5 16.195 13.381 14.581 14.734 13.583C14.924 13.442 14.901 13.164 14.688 13.061C13.962 12.71 13.076 12.501 12.001 12.501H8.00098C3.94098 12.501 2.50098 15.471 2.50098 18.021C2.50098 20.301 3.71098 21.501 6.00098 21.501H13.166C13.4 21.501 13.551 21.24 13.421 21.046C12.837 20.173 12.5 19.126 12.5 18ZM22 18C22 20.21 20.21 22 18 22C15.79 22 14 20.21 14 18C14 15.79 15.79 14 18 14C20.21 14 22 15.79 22 18ZM19.42 18.72L18.5 17.79V16.5C18.5 16.22 18.28 16 18 16C17.72 16 17.5 16.22 17.5 16.5V18C17.5 18.13 17.55 18.26 17.65 18.35L18.72 19.42C18.82 19.52 18.9399 19.5699 19.0699 19.5699C19.1999 19.5699 19.33 19.52 19.42 19.42C19.62 19.23 19.62 18.91 19.42 18.72Z" fill="currentColor"/>
</svg>

<svg xmlns="http://www.w3.org/2000/svg" width="24" height="24" fill="none"><path fill="currentColor" d="M6.009 6.5c0-2.206 1.794-4 4-4s4 1.794 4 4-1.794 4-4 4-4-1.794-4-4ZM12.5 18a5.49 5.49 0 0 1 2.234-4.417.302.302 0 0 0-.046-.522c-.726-.351-1.612-.56-2.687-.56h-4c-4.06 0-5.5 2.97-5.5 5.52 0 2.28 1.21 3.48 3.5 3.48h7.165c.234 0 .385-.261.255-.455A5.456 5.456 0 0 1 12.5 18Zm9.5 0c0 2.21-1.79 4-4 4s-4-1.79-4-4 1.79-4 4-4 4 1.79 4 4Zm-2.58.72-.92-.93V16.5c0-.28-.22-.5-.5-.5s-.5.22-.5.5V18c0 .13.05.26.15.35l1.07 1.07a.485.485 0 0 0 .7 0c.2-.19.2-.51 0-.7Z"/></svg>
